assets/icons/search.svg

<svg width="24" height="25" viewBox="0 0 24 25" fill="none" xmlns="http://www.w3.org/2000/svg">
<path d="M20.9998 21.4998L15.8028 16.3028M15.8028 16.3028C17.2094 14.8962 17.9996 12.9885 17.9996 10.9993C17.9996 9.01011 17.2094 7.10238 15.8028 5.69581C14.3962 4.28923 12.4885 3.49902 10.4993 3.49902C8.51011 3.49902 6.60238 4.28923 5.19581 5.69581C3.78923 7.10238 2.99902 9.01011 2.99902 10.9993C2.99902 12.9885 3.78923 14.8962 5.19581 16.3028C6.60238 17.7094 8.51011 18.4996 10.4993 18.4996C12.4885 18.4996 14.3962 17.7094 15.8028 16.3028Z" stroke="black" stroke-width="1.5" stroke-linecap="round" stroke-linejoin="round"/>
</svg>

<?xml version="1.0" encoding="UTF-8"?>
<svg id="Layer_1" data-name="Layer 1" xmlns="http://www.w3.org/2000/svg" viewBox="0 0 24 25">
  <path d="M21,21.5l-5.2-5.2M15.8,16.3c1.41-1.41,2.2-3.31,2.2-5.3s-.79-3.9-2.2-5.3c-1.41-1.41-3.31-2.2-5.3-2.2s-3.9.79-5.3,2.2c-1.41,1.41-2.2,3.31-2.2,5.3s.79,3.9,2.2,5.3c1.41,1.41,3.31,2.2,5.3,2.2s3.9-.79,5.3-2.2Z" style="fill: none; stroke: #000; stroke-linecap: round; stroke-linejoin: round; stroke-width: 1.5px;"/>
</svg>
